X:1
T:VII. Stay time a while thy flying,
T:VII. Stay time a while thy flying,
T:CANTUS.
T:John Dowland
C:John Dowland
L:1/8
M:3/2
K:C
V:1 treble 
V:1
|: c8 B4 | c4 d4 B4 | c8 B8 | A4 G4 | E6 F2 G4 | G4 E4 A8 ^G4 :: B4 | c8"^(1)" d6 | %8
w: For fates|and friends have|left mee,||Stay and pit-|* * tie me|Come,|come close|
w: T'is time|that must be-|friend me,||And of com-|* * fort be-|Come,|come close|
w: Light griefes|can speake their|plea- sure,||When thus friends|* * doe dis-|Quicke,|quicke, close|
w: ||||Drown'd in sor-|* * row to|||
w: ||||I feede by|* * night, (oh|||
w: ||||Mine are dumbe|* * pass- ing|||
 c2 B4"^(1)" c6 | B2 A4 B4 | ^G4 E8 | z4 A4 G2 F2 | E6 G2"^(2)" F4 | E2 A2 ^G8 !fermata!A8 :| x12 | %15
w: mine eyes, bet-|ter to dye|bless- ed,|Then to *|live, to live|thus di- stres- sed.||
w: mine eyes, bet-|ter to dye|bless- ed,|Then to *|live, to live|thus di- stres- sed.||
w: mine eyes, bet-|ter to dye|bless- ed,|Then here to|live, to live|dis- * tres- sed.||
w: |||||||
w: |||||||
w: |||||||

